Yosa-Max/places/16x16/folder-network.svg

<?xml version="1.0" encoding="UTF-8"?>
<svg id="svg6" version="1.1" viewBox="0 0 16 16" xmlns="http://www.w3.org/2000/svg">
 <defs id="defs3051">
  <style id="current-color-scheme" type="text/css">.ColorScheme-Text {
        color:#4d4d4d;
      }</style>
 </defs>
 <path id="folderGlyph-1" d="m1 1.411775v2.63529h6.2999998v7.90587h-1.4v0.658819h-4.8999998v1.317645h4.8999998v0.658826h4.2000002v-0.658826h4.9v-1.317645h-4.9v-0.658819h-1.4000002v-7.90587h6.3000002v-2.63529zm12.6 0.6588186c0.3878 0 0.7 0.2938395 0.7 0.658826 0 0.3649875-0.3122 0.6588194-0.7 0.6588194s-0.7-0.2938319-0.7-0.6588194c0-0.3649865 0.3122-0.658826 0.7-0.658826zm-5.6000002 10.54116c0.3878 0 0.7 0.293839 0.7 0.658826s-0.3122 0.658819-0.7 0.658819-0.7-0.293832-0.7-0.658819 0.3122-0.658826 0.7-0.658826z" style="color-rendering:auto;color:#000000;fill:#4d4d4d;image-rendering:auto;isolation:auto;mix-blend-mode:normal;shape-rendering:auto;solid-color:#000000"/>
</svg>

<?xml version="1.0" encoding="UTF-8" standalone="no"?>
<svg
   xmlns:dc="http://purl.org/dc/elements/1.1/"
   xmlns:cc="http://creativecommons.org/ns#"
   xmlns:rdf="http://www.w3.org/1999/02/22-rdf-syntax-ns#"
   xmlns:svg="http://www.w3.org/2000/svg"
   xmlns="http://www.w3.org/2000/svg"
   xmlns:sodipodi="http://sodipodi.sourceforge.net/DTD/sodipodi-0.dtd"
   xmlns:inkscape="http://www.inkscape.org/namespaces/inkscape"
   id="svg6"
   version="1.1"
   viewBox="0 0 16 16"
   sodipodi:docname="network-server.svg"
   inkscape:version="0.92.2 2405546, 2018-03-11">
  <sodipodi:namedview
     pagecolor="#ffffff"
     bordercolor="#666666"
     borderopacity="1"
     objecttolerance="10"
     gridtolerance="10"
     guidetolerance="10"
     inkscape:pageopacity="0"
     inkscape:pageshadow="2"
     inkscape:window-width="1366"
     inkscape:window-height="699"
     id="namedview7"
     showgrid="false"
     inkscape:zoom="30.4375"
     inkscape:cx="8"
     inkscape:cy="8"
     inkscape:window-x="0"
     inkscape:window-y="0"
     inkscape:window-maximized="1"
     inkscape:current-layer="svg6" />
  <metadata
     id="metadata10">
    <rdf:RDF>
      <cc:Work
         rdf:about="">
        <dc:format>image/svg+xml</dc:format>
        <dc:type
           rdf:resource="http://purl.org/dc/dcmitype/StillImage" />
        <dc:title />
      </cc:Work>
    </rdf:RDF>
  </metadata>
  <defs
     id="defs3051">
    <style
       id="current-color-scheme"
       type="text/css">
      .ColorScheme-Text {
        color:#4d4d4d;
      }
      </style>
  </defs>
  <path
     style="color:#000000;clip-rule:nonzero;display:inline;overflow:visible;visibility:visible;opacity:1;isolation:auto;mix-blend-mode:normal;color-interpolation:sRGB;color-interpolation-filters:linearRGB;solid-color:#000000;solid-opacity:1;fill:#4d4d4d;fill-opacity:1;fill-rule:nonzero;stroke:none;stroke-width:0.97014171;stroke-linecap:butt;stroke-linejoin:miter;stroke-miterlimit:4;stroke-dasharray:none;stroke-dashoffset:0;stroke-opacity:1;color-rendering:auto;image-rendering:auto;shape-rendering:auto;text-rendering:auto;enable-background:accumulate"
     d="m 1,1.411775 v 2.63529 h 6.2999998 v 7.90587 h -1.4 v 0.658819 H 1 v 1.317645 h 4.8999998 v 0.658826 H 10.1 V 13.929399 H 15 V 12.611754 H 10.1 V 11.952935 H 8.6999998 V 4.047065 H 15 v -2.63529 z m 12.6,0.6588186 c 0.3878,0 0.7,0.2938395 0.7,0.658826 0,0.3649875 -0.3122,0.6588194 -0.7,0.6588194 -0.3878,0 -0.7,-0.2938319 -0.7,-0.6588194 0,-0.3649865 0.3122,-0.658826 0.7,-0.658826 z M 7.9999998,12.611754 c 0.3878,0 0.7,0.293839 0.7,0.658826 0,0.364987 -0.3122,0.658819 -0.7,0.658819 -0.3878,0 -0.7,-0.293832 -0.7,-0.658819 0,-0.364987 0.3122,-0.658826 0.7,-0.658826 z"
     id="folderGlyph-1"
     inkscape:connector-curvature="0" />
</svg>
